**kern	**kern	**dynam
*part1	*part1	*part1
*staff2	*staff1	*
*I"Piano	*	*
*clefF4	*clefF4	*
*k[b-e-]	*k[b-e-]	*
=1	=1	=1
*	*^	*
*	*	*^	*
(2FF 2F	4B-]) 4d	4F	8F/L	.
.	.	.	[8B-/J	.
.	4..c	2E-X	4B-/]	.
4FF)	.	.	4A/	.
.	16B-	.	.	.
*	*v	*v	*v	*
=	=	=
!	!	!LO:DY:a
(4FFF#X 4FF#X	2D 2B-	pp
4GGG) 4GG	.	.
(8EEE-L 8EE-	(8CL 8B-	pp
8EEEnJ) 8EEn	8C#XJ) 8G	.
=	=	=
*	*^	*
*	*	*^	*
2FFFn [2FFn	4rFyy	4D	(8F/L	.
.	.	.	[8B-/J	.
.	4..c	2E-X	4B-/]	.
4FF] 4F	.	.	4A/)	.
.	16B-	.	.	.
*	*v	*v	*v	*
*	*clefG2	*
=	=	=
(4BB-' 4D	(4B-' 4f	pp
4EE-' 4E-	4B-' 4g	.
8r	8r	.
8FF') 8E-	8A') 8f	.
=	=	=
(4BB-' 4D	(4B-' 4f	.
4EE-' 4E-	4B-' 4g	.
8r	8r	.
8FF') 8E-	8A') 8f	.
=	=	=
*^	*	*
4BB- 4D	4rGGyy	4B- 4f	.
4r	4rGGyy	4r	.
[4F [4B- [4d	[4BB-	4ryy	ppp
=	=	=	=
2F;] 2B-] 2d]	2BBB-; 2BB-]	2ryy	.
4r	4rGGyy	4r	.
*v	*v	*	*
==	==	==
*-	*-	*-
!!!system-decoration: {(s1,s2)}
